config/expand/iconfont/nav-menu/menu-daohang.svg

<?xml version="1.0" standalone="no"?><!DOCTYPE svg PUBLIC "-//W3C//DTD SVG 1.1//EN" "http://www.w3.org/Graphics/SVG/1.1/DTD/svg11.dtd"><svg class="icon" width="48px" height="48.00px" viewBox="0 0 1024 1024" version="1.1" xmlns="http://www.w3.org/2000/svg"><path fill="#D9DDE1" d="M0 0h256v256H0V0z m0 384h256v256H0v-256z m0 384h256V1024H0v-256zM384 0h256v256h-256V0z m0 384h256v256h-256v-256z m0 384h256V1024h-256v-256zM768 0H1024v256h-256V0z m0 384H1024v256h-256v-256z m0 384H1024V1024h-256v-256z"  /></svg>

<svg class="icon" width="48" height="48" viewBox="0 0 1024 1024" xmlns="http://www.w3.org/2000/svg"><path d="M0 0h256v256H0V0zm0 384h256v256H0V384zm0 384h256v256H0V768zM384 0h256v256H384V0zm0 384h256v256H384V384zm0 384h256v256H384V768zM768 0h256v256H768V0zm0 384h256v256H768V384zm0 384h256v256H768V768z"/></svg>
